src/img/icons/logo_2.svg

<svg width="43" height="45" viewBox="0 0 43 45" fill="none" xmlns="http://www.w3.org/2000/svg">
<g id="logo">
<g id="Group">
<path id="Vector" fill-rule="evenodd" clip-rule="evenodd" d="M41.4503 14.2977L34.2039 17.3615C35.2184 15.6837 36.3778 13.5682 36.7402 11.3798C28.914 12.474 23.5517 16.1943 19.2763 22.9785L14.2038 20.4983C17.1749 15.6108 20.943 11.8175 26.1604 9.26433C24.856 7.80538 22.8995 6.27349 21.0154 5.39812C18.8415 6.63822 16.885 8.17012 15.798 9.55612C16.7401 10.2127 17.6821 10.9421 18.5517 11.8175C17.1749 12.9847 16.0154 14.2248 15.0734 15.6108C12.2473 12.9117 9.34872 11.3069 5.1458 10.2127C5.21827 12.4011 5.94291 14.8083 6.88494 16.8509L0.363168 14.0789C-0.216545 10.8692 -0.071616 7.65949 0.580561 4.4498C4.42116 4.66864 7.9719 5.47106 11.1603 6.93001C14.0589 3.64738 16.6676 1.67779 21.0154 0C25.1459 1.45895 28.4068 3.57443 31.3778 7.29475C35.0735 6.27349 38.4068 5.90875 42.175 5.76285C42.3199 8.82665 42.175 11.5987 41.4503 14.2977Z" fill="#ED6E77"/>
<path id="Vector_2" fill-rule="evenodd" clip-rule="evenodd" d="M9.20622 30.5632L9.0613 25.7486L21.0179 32.2409L32.9745 25.6757V30.4173L21.0903 37.785L9.20622 30.5632ZM20.0034 43.8396L5.0033 33.7728C4.49605 33.4081 4.13373 32.8975 4.13373 32.168L3.91634 21.8824C2.90184 20.5693 1.59749 18.8186 0.945312 16.7031L21.0903 25.9675C27.9744 22.6848 32.902 20.3505 40.5107 16.9949C40.1484 17.7973 38.9165 20.2046 38.2643 21.007V31.9492C38.2643 32.6057 37.9745 33.1893 37.3948 33.554C32.0324 36.9825 27.4672 40.4111 22.1048 43.7667C21.4527 44.2773 20.6556 44.2773 20.0034 43.8396Z" fill="#AE9BA5"/>
</g>
</g>
</svg>

<svg xmlns="http://www.w3.org/2000/svg" width="43" height="45" fill="none">
  <g fill-rule="evenodd" clip-rule="evenodd">
    <path fill="#ED6E77" d="m41.45 14.298-7.246 3.063c1.014-1.677 2.174-3.793 2.536-5.981-7.826 1.094-13.188 4.814-17.464 11.598l-5.072-2.48c2.97-4.887 6.739-8.68 11.956-11.234-1.304-1.459-3.26-2.99-5.145-3.866-2.174 1.24-4.13 2.772-5.217 4.158.942.657 1.884 1.386 2.754 2.262-1.377 1.167-2.537 2.407-3.479 3.793-2.826-2.7-5.724-4.304-9.927-5.398.072 2.188.797 4.595 1.739 6.638L.363 14.079c-.58-3.21-.435-6.42.218-9.63 3.84.22 7.39 1.022 10.58 2.481 2.898-3.283 5.507-5.252 9.854-6.93 4.13 1.459 7.392 3.574 10.363 7.295 3.696-1.022 7.029-1.386 10.797-1.532.145 3.064 0 5.836-.725 8.535Z"/>
    <path fill="#AE9BA5" d="m9.206 30.563-.145-4.814 11.957 6.492 11.956-6.565v4.741L21.09 37.785 9.206 30.563ZM20.003 43.84l-15-10.067c-.507-.365-.87-.876-.87-1.605l-.217-10.286C2.902 20.57 1.597 18.82.946 16.703l20.144 9.265c6.884-3.283 11.812-5.617 19.42-8.973-.362.802-1.593 3.21-2.246 4.012v10.942c0 .657-.29 1.24-.87 1.605-5.362 3.428-9.927 6.857-15.29 10.213-.651.51-1.448.51-2.1.073Z"/>
  </g>
</svg>
